X: 35
T:Three Drunken Maidens
M:2/4
L:1/8
K:G
D| DB AG| E2 Dc| B>G AF| G2 zB|DB AG| E2 Dc| B>G AF| G3||
B|c>B AB|c>B AB|BG Bc|d2 zd|DB AG| E2 Dc| B>G AF| G3||
